X: 1
T:Glen Caladh Castle
M:C|
L:1/8
Q:80
C:Pipe Major B Maclellan - Duneen
S:March
K:HP
|: A/2d/4|
{fg}fa3/4f/4{Gdc}d3/2c/2|
{g}B/4d3/4{a}g/2B/4{g}A{g}d3/4c/4|  !
{gBd}B{g}e3/4f/4{a}g3/4B/4{g}e3/4d/4|
{gcd}c{g}e{A}e{g}A/2d/4|
{g}fa3/4f/4{Gdc}d{gdc}d3/4c/4|  !
{g}B/4d3/4{g}c/4e3/4{g}A{g}d3/4c/4|
{gBd}B{e}G3/4d/4{g}c/4a3/4{f}g3/4e/4|
{Gdc}d2{gdc}d:| |:  !
{g}f3/4g/4|
a3/4f/4{g}d3/4f/4{ag}ae3/4f/4|
{a}g3/4e/4{g}c/4e3/4{gf}ga3/4g/4|  !
{fg}f3/4d/4{g}A3/4d/4{g}f/4a3/4{f}g3/4f/4|
{g}e/2d/2{g}c3/4d/4{gef}e{g}f3/4g/4|
a3/4g/4{a}f3/4e/4{g}f/4a3/4d3/4c/4|  !
{g}B/4d3/4{a}g3/4B/4{g}A{g}d3/4c/4|
{gBd}B{e}G3/4d/4{g}c/4a3/4{f}g3/4e/4|
{Gdc}d2{gdc}d:| |:  !
a3/4d/4|
{Gdc}d{e}A3/4a/4{fg}f{g}d3/4f/4|
{g}A3/4d/4{g}f3/4d/4a3/4f/4{g}e3/4d/4|  !
{gcd}c{e}A3/4g/4{ef}e{g}A3/4{d}B/4|
{g}A3/4B/4{GdG}c3/4d/4{g}e3/4f/4{a}g3/4e/4| |
{Gdc}d{e}A3/4a/4{fg}f{g}d3/4f/4|  !
{g}A3/4d/4{g}d/4f3/4{g}f/4a3/4d3/4c/4|
{gBd}B{e}G3/4d/4{g}c/4a3/4{f}g3/4e/4|
{Gdc}d2{gdc}d:| |:  !
{g}f3/4g/4|
a3/4f/4{g}d/4f3/4{g}A3/4d/4{g}d/4f3/4|
{g}A3/4B/4{Gdc}d3/4e/4{g}f{g}e3/4f/4|  !
{a}g3/4e/4{g}c/4e3/4{g}A3/4e/4{g}c/4e3/4|
{a}g3/4A/4{d}c/4e3/4{gf}g{a}f3/4g/4| |
a3/4f/4{g}d/4f3/4{g}A3/4d/4{g}d/4f3/4|  !
{g}A3/4B/4{Gdc}d3/4e/4{g}f3/4e/4{g}d3/4c/4|
{gBd}B{e}G3/4d/4{g}c/4a3/4{f}g3/4e/4|
{Gdc}d2{gdc}d:|  !
